resources/vendors/cashu/logo-1504703885.svg

<?xml version="1.0" encoding="UTF-8"?>
<!DOCTYPE svg  PUBLIC '-//W3C//DTD SVG 1.1//EN'  'http://www.w3.org/Graphics/SVG/1.1/DTD/svg11.dtd'>
<svg version="1.1" viewBox="0 0 840 200" xmlns="http://www.w3.org/2000/svg" xmlns:xlink="http://www.w3.org/1999/xlink">
<defs>
<path id="b" d="m638.5 27.17c-2 0.09-3.11 0.15-3.33 0.16-3.2 0.17-6.26 1-9.03 2.38-2.77 1.39-5.28 3.32-7.34 5.66-2.07 2.34-3.71 5.08-4.8 8.07s-1.62 6.23-1.47 9.56c0.53 11.97 4.77 107.75 5.3 119.73 0.14 2.97 0.88 5.69 2.15 8.05 1.24 2.38 2.95 4.41 5.03 5.99s4.51 2.72 7.16 3.34c2.62 0.62 5.49 0.71 8.45 0.21 1.69-0.29 10.12-1.76 25.29-4.4l33.3-5.76c14.65-2.54 22.79-3.94 24.42-4.22-0.93-0.11-1.86-0.25-2.77-0.42-0.91-0.16-1.8-0.36-2.67-0.57-0.87-0.22-1.74-0.48-2.58-0.76s-1.66-0.59-2.48-0.94c-1.65-0.7-3.21-1.46-4.7-2.3-1.48-0.85-2.89-1.77-4.21-2.77-1.31-1-2.54-2.06-3.7-3.2-1.15-1.15-2.21-2.39-3.19-3.69-1.44-1.94-2.93-4.2-4.47-6.77-1.55-2.59-3.15-5.5-4.8-8.72-1.66-3.27-3.37-6.86-5.15-10.79-1.79-3.94-3.62-8.25-5.54-12.91-5.18-12.65-18.14-44.3-38.87-94.93z"/>
<path id="f" d="m756 21.42-75.15 3.69c18.25 48.44 28.39 75.35 30.42 80.74 1.33 3.54 2.56 6.74 3.71 9.61 1.15 2.86 2.18 5.37 3.13 7.57 0.93 2.18 1.78 4.04 2.54 5.58 0.75 1.53 1.43 2.76 2 3.65 0.94 1.44 1.98 2.72 3.09 3.87 1.12 1.13 2.31 2.11 3.59 2.96 1.27 0.83 2.62 1.52 4.05 2.07 1.44 0.56 2.96 0.95 4.55 1.21 0.56 0.09 1.15 0.16 1.73 0.2 0.59 0.06 1.18 0.08 1.77 0.08 0.62 0 1.22-0.02 1.84-0.08 0.62-0.05 1.24-0.12 1.87-0.21 1.13-0.17 2.3-0.41 3.49-0.73 1.2-0.31 2.41-0.72 3.65-1.17 1.25-0.47 2.51-1 3.79-1.63 1.29-0.61 2.61-1.29 3.96-2.04 2.12-1.21 4.05-2.44 5.83-3.7 1.77-1.26 3.37-2.57 4.8-3.91 1.42-1.33 2.7-2.71 3.78-4.11 1.1-1.41 2.04-2.87 2.79-4.37 0.77-1.48 1.41-2.96 1.92-4.44 0.54-1.47 0.93-2.94 1.2-4.41 0.28-1.47 0.44-2.92 0.47-4.38 0.04-1.46-0.05-2.92-0.26-4.36-0.22-1.45-0.52-3.12-0.93-4.99-0.41-1.88-0.92-3.96-1.52-6.28-0.63-2.31-1.34-4.84-2.14-7.6-0.83-2.76-1.76-5.76-2.78-8.98-2.29-7.18-8.02-25.12-17.19-53.84z"/>
<path id="a" d="m816.52 18.47-25.3 1.23c6.18 21.16 9.62 32.92 10.31 35.27 1.42 4.89 2.69 9.4 3.79 13.56 1.1 4.13 2.05 7.92 2.83 11.36 0.77 3.43 1.4 6.52 1.89 9.3 0.46 2.74 0.79 5.18 0.97 7.3 0.17 2.1 0.25 4.18 0.22 6.23-0.01 2.03-0.14 4.04-0.38 6.01-0.22 1.98-0.56 3.92-0.99 5.82-0.43 1.91-0.95 3.8-1.58 5.65-0.64 1.86-1.37 3.68-2.22 5.5-0.84 1.82-1.78 3.62-2.84 5.4-1.05 1.8-2.19 3.56-3.46 5.32-1.28 1.76-2.65 3.51-4.12 5.24-1.49 1.73-3.12 3.46-4.94 5.17-1.81 1.71-3.79 3.42-5.92 5.1-2.16 1.71-4.46 3.39-6.95 5.05-2.51 1.69-5.18 3.36-8.01 5.02-1.58 0.93-3.14 1.81-4.66 2.65-1.53 0.83-3.01 1.63-4.46 2.36-1.46 0.76-2.88 1.45-4.28 2.1-1.39 0.67-2.74 1.27-4.06 1.83 5.7-0.99 51.33-8.89 57.03-9.88 2.25-0.39 4.41-1.28 6.39-2.53 1.97-1.26 3.77-2.92 5.32-4.82 1.53-1.91 2.81-4.08 3.76-6.42 0.94-2.33 1.51-4.82 1.67-7.37 0.59-10.17 5.28-91.53 5.86-101.7 0.16-2.81-0.15-5.47-0.86-7.86-0.72-2.42-1.82-4.57-3.25-6.37-1.43-1.81-3.18-3.24-5.17-4.2-1.99-0.95-4.21-1.45-6.59-1.32"/>
<path id="e" d="m124.9 74.24c-5.53-3.31-11.47-5.91-17.86-7.8s-12.9-2.84-19.52-2.84c-12.78 0-22.99 4.02-30.63 12.07-7.65 8.04-11.48 19.09-11.48 33.12 0 14.19 3.71 25.39 11.12 33.59s17.82 12.3 31.23 12.3c7.25 0 14.19-1.1 20.82-3.31 6.62-2.21 12.69-5.12 18.22-8.75 0.78 3.33 7.02 30.02 7.8 33.35-5.84 3.16-13.21 5.72-22.12 7.69s-17.71 2.96-26.38 2.96c-11.83 0-22.56-1.7-32.17-5.09-9.63-3.39-17.86-8.32-24.72-14.78-6.86-6.47-12.18-14.47-15.97-24.02-3.79-9.54-5.67-20.53-5.67-33 0-11.98 1.84-22.78 5.55-32.41 3.7-9.62 9.03-17.82 15.96-24.6 6.95-6.78 15.34-11.98 25.21-15.62 9.85-3.62 20.85-5.43 33-5.43 8.98 0 17.7 1.02 26.14 3.08 8.43 2.04 16.04 4.72 22.82 8.04l-11.35 31.45z"/>
<path id="c" d="m257.61 183.07-10.88-31.47h-54.89l-10.64 31.47h-37.38l52.52-147.86h47.08l51.57 147.86h-37.38zm-19.16-60.8-18.92-57.95-19.64 57.95h38.56z"/>
<path id="g" d="m360.04 155.63c6.63 0 12.03-1.19 16.21-3.55s6.27-5.83 6.27-10.41c0-2.52-0.68-4.65-2.02-6.39-1.34-1.73-3.27-3.27-5.79-4.61s-5.68-2.61-9.46-3.79c-3.79-1.18-8.13-2.48-13.01-3.9-5.37-1.42-10.85-3.23-16.45-5.44s-10.72-5.01-15.37-8.4c-4.66-3.38-8.44-7.65-11.36-12.77-2.92-5.13-4.37-11.39-4.37-18.81 0-13.72 4.88-24.76 14.66-33.12 9.78-8.35 23.82-12.54 42.11-12.54 11.67 0 22.04 1.19 31.11 3.55 9.07 2.37 17.15 5.52 24.25 9.46-0.73 3.1-6.6 27.9-7.33 31-7.42-3.95-15.38-7.1-23.9-9.47-8.52-2.36-16.48-3.55-23.89-3.55-12.94 0-19.4 4.19-19.4 12.54 0 2.36 0.79 4.46 2.36 6.27 1.58 1.82 3.79 3.4 6.63 4.73 2.84 1.34 6.15 2.6 9.93 3.79 3.79 1.18 7.89 2.4 12.3 3.66 5.69 1.58 11.28 3.48 16.8 5.68 5.52 2.21 10.49 5.01 14.91 8.4 4.41 3.4 7.95 7.57 10.64 12.54 2.68 4.97 4.03 11 4.03 18.1 0 7.09-1.35 13.56-4.03 19.39-2.69 5.84-6.58 10.89-11.71 15.14-5.13 4.26-11.43 7.57-18.92 9.94-7.49 2.36-16.13 3.55-25.91 3.55-11.04 0-21.57-1.27-31.58-3.79-10.02-2.52-18.49-5.75-25.43-9.7 0.71-3.12 6.39-28.1 7.09-31.22 7.42 3.94 15.42 7.21 24.02 9.82 8.59 2.6 17.46 3.9 26.61 3.9"/>
<path id="d" d="m541.26 183.07v-58.67h-59.39v58.67h-37.61v-147.86h37.61v57.49h59.39v-57.49h37.61v147.86h-37.61z"/>
</defs>
<use fill="#00adee" xlink:href="#b"/>
<use fill-opacity="0" stroke="#000000" stroke-opacity="0" xlink:href="#b"/>
<use fill="#e93a26" xlink:href="#f"/>
<use fill-opacity="0" stroke="#000000" stroke-opacity="0" xlink:href="#f"/>
<use fill="#ffc627" xlink:href="#a"/>
<use fill-opacity="0" stroke="#000000" stroke-opacity="0" xlink:href="#a"/>
<use fill="#00adee" xlink:href="#e"/>
<use fill-opacity="0" stroke="#000000" stroke-opacity="0" xlink:href="#e"/>
<use fill="#00adee" xlink:href="#c"/>
<use fill-opacity="0" stroke="#000000" stroke-opacity="0" xlink:href="#c"/>
<use fill="#00adee" xlink:href="#g"/>
<use fill-opacity="0" stroke="#000000" stroke-opacity="0" xlink:href="#g"/>
<use fill="#00adee" xlink:href="#d"/>
<use fill-opacity="0" stroke="#000000" stroke-opacity="0" xlink:href="#d"/>
</svg>

<?xml version="1.0" encoding="UTF-8" standalone="no"?>
<!DOCTYPE svg PUBLIC "-//W3C//DTD SVG 1.1//EN" "http://www.w3.org/Graphics/SVG/1.1/DTD/svg11.dtd">
<svg version="1.1" xmlns="http://www.w3.org/2000/svg" xmlns:xlink="http://www.w3.org/1999/xlink" preserveAspectRatio="xMidYMid meet" viewBox="0 0 840 200" width="840" height="200"><defs><path d="M638.5 27.17C636.5 27.26 635.39 27.32 635.17 27.33C631.97 27.5 628.91 28.33 626.14 29.71C623.37 31.1 620.86 33.03 618.8 35.37C616.73 37.71 615.09 40.45 614 43.44C612.91 46.43 612.38 49.67 612.53 53C613.06 64.97 617.3 160.75 617.83 172.73C617.97 175.7 618.71 178.42 619.98 180.78C621.22 183.16 622.93 185.19 625.01 186.77C627.09 188.35 629.52 189.49 632.17 190.11C634.79 190.73 637.66 190.82 640.62 190.32C642.31 190.03 650.74 188.56 665.91 185.92L699.21 180.16C713.86 177.62 722 176.22 723.63 175.94C722.7 175.83 721.77 175.69 720.86 175.52C719.95 175.36 719.06 175.16 718.19 174.95C717.32 174.73 716.45 174.47 715.61 174.19C714.77 173.91 713.95 173.6 713.13 173.25C711.48 172.55 709.92 171.79 708.43 170.95C706.95 170.1 705.54 169.18 704.22 168.18C702.91 167.18 701.68 166.12 700.52 164.98C699.37 163.83 698.31 162.59 697.33 161.29C695.89 159.35 694.4 157.09 692.86 154.52C691.31 151.93 689.71 149.02 688.06 145.8C686.4 142.53 684.69 138.94 682.91 135.01C681.12 131.07 679.29 126.76 677.37 122.1C672.19 109.45 659.23 77.8 638.5 27.17Z" id="d1YDkrBt2H"></path><path d="M756 21.42L680.85 25.11C699.1 73.55 709.24 100.46 711.27 105.85C712.6 109.39 713.83 112.59 714.98 115.46C716.13 118.32 717.16 120.83 718.11 123.03C719.04 125.21 719.89 127.07 720.65 128.61C721.4 130.14 722.08 131.37 722.65 132.26C723.59 133.7 724.63 134.98 725.74 136.13C726.86 137.26 728.05 138.24 729.33 139.09C730.6 139.92 731.95 140.61 733.38 141.16C734.82 141.72 736.34 142.11 737.93 142.37C738.49 142.46 739.08 142.53 739.66 142.57C740.25 142.63 740.84 142.65 741.43 142.65C742.05 142.65 742.65 142.63 743.27 142.57C743.89 142.52 744.51 142.45 745.14 142.36C746.27 142.19 747.44 141.95 748.63 141.63C749.83 141.32 751.04 140.91 752.28 140.46C753.53 139.99 754.79 139.46 756.07 138.83C757.36 138.22 758.68 137.54 760.03 136.79C762.15 135.58 764.08 134.35 765.86 133.09C767.63 131.83 769.23 130.52 770.66 129.18C772.08 127.85 773.36 126.47 774.44 125.07C775.54 123.66 776.48 122.2 777.23 120.7C778 119.22 778.64 117.74 779.15 116.26C779.69 114.79 780.08 113.32 780.35 111.85C780.63 110.38 780.79 108.93 780.82 107.47C780.86 106.01 780.77 104.55 780.56 103.11C780.34 101.66 780.04 99.99 779.63 98.12C779.22 96.24 778.71 94.16 778.11 91.84C777.48 89.53 776.77 87 775.97 84.24C775.14 81.48 774.21 78.48 773.19 75.26C770.9 68.08 765.17 50.14 756 21.42Z" id="bPuE6Zfyj"></path><path d="M816.52 18.47L791.22 19.7C797.4 40.86 800.84 52.62 801.53 54.97C802.95 59.86 804.22 64.37 805.32 68.53C806.42 72.66 807.37 76.45 808.15 79.89C808.92 83.32 809.55 86.41 810.04 89.19C810.5 91.93 810.83 94.37 811.01 96.49C811.18 98.59 811.26 100.67 811.23 102.72C811.22 104.75 811.09 106.76 810.85 108.73C810.63 110.71 810.29 112.65 809.86 114.55C809.43 116.46 808.91 118.35 808.28 120.2C807.64 122.06 806.91 123.88 806.06 125.7C805.22 127.52 804.28 129.32 803.22 131.1C802.17 132.9 801.03 134.66 799.76 136.42C798.48 138.18 797.11 139.93 795.64 141.66C794.15 143.39 792.52 145.12 790.7 146.83C788.89 148.54 786.91 150.25 784.78 151.93C782.62 153.64 780.32 155.32 777.83 156.98C775.32 158.67 772.65 160.34 769.82 162C768.24 162.93 766.68 163.81 765.16 164.65C763.63 165.48 762.15 166.28 760.7 167.01C759.24 167.77 757.82 168.46 756.42 169.11C755.03 169.78 753.68 170.38 752.36 170.94C758.06 169.95 803.69 162.05 809.39 161.06C811.64 160.67 813.8 159.78 815.78 158.53C817.75 157.27 819.55 155.61 821.1 153.71C822.63 151.8 823.91 149.63 824.86 147.29C825.8 144.96 826.37 142.47 826.53 139.92C827.12 129.75 831.81 48.39 832.39 38.22C832.55 35.41 832.24 32.75 831.53 30.36C830.81 27.94 829.71 25.79 828.28 23.99C826.85 22.18 825.1 20.75 823.11 19.79C821.12 18.84 818.9 18.34 816.52 18.47" id="f3UnOjkhy0"></path><path d="M124.9 74.24C119.37 70.93 113.43 68.33 107.04 66.44C100.65 64.55 94.14 63.6 87.52 63.6C74.74 63.6 64.53 67.62 56.89 75.67C49.24 83.71 45.41 94.76 45.41 108.79C45.41 122.98 49.12 134.18 56.53 142.38C63.94 150.58 74.35 154.68 87.76 154.68C95.01 154.68 101.95 153.58 108.58 151.37C115.2 149.16 121.27 146.25 126.8 142.62C127.58 145.95 133.82 172.64 134.6 175.97C128.76 179.13 121.39 181.69 112.48 183.66C103.57 185.63 94.77 186.62 86.1 186.62C74.27 186.62 63.54 184.92 53.93 181.53C44.3 178.14 36.07 173.21 29.21 166.75C22.35 160.28 17.03 152.28 13.24 142.73C9.45 133.19 7.57 122.2 7.57 109.73C7.57 97.75 9.41 86.95 13.12 77.32C16.82 67.7 22.15 59.5 29.08 52.72C36.03 45.94 44.42 40.74 54.29 37.1C64.14 33.48 75.14 31.67 87.29 31.67C96.27 31.67 104.99 32.69 113.43 34.75C121.86 36.79 129.47 39.47 136.25 42.79C133.98 49.08 127.17 67.95 124.9 74.24Z" id="bRUWY7kRz"></path><path d="M257.61 183.07L246.73 151.6L191.84 151.6L181.2 183.07L143.82 183.07L196.34 35.21L243.42 35.21L294.99 183.07L257.61 183.07ZM238.45 122.27L219.53 64.32L199.89 122.27L238.45 122.27Z" id="c5g22v1H87"></path><path d="M360.04 155.63C366.67 155.63 372.07 154.44 376.25 152.08C380.43 149.72 382.52 146.25 382.52 141.67C382.52 139.15 381.84 137.02 380.5 135.28C379.16 133.55 377.23 132.01 374.71 130.67C372.19 129.33 369.03 128.06 365.25 126.88C361.46 125.7 357.12 124.4 352.24 122.98C346.87 121.56 341.39 119.75 335.79 117.54C330.19 115.33 325.07 112.53 320.42 109.14C315.76 105.76 311.98 101.49 309.06 96.37C306.14 91.24 304.69 84.98 304.69 77.56C304.69 63.84 309.57 52.8 319.35 44.44C329.13 36.09 343.17 31.9 361.46 31.9C373.13 31.9 383.5 33.09 392.57 35.45C401.64 37.82 409.72 40.97 416.82 44.91C416.09 48.01 410.22 72.81 409.49 75.91C402.07 71.96 394.11 68.81 385.59 66.44C377.07 64.08 369.11 62.89 361.7 62.89C348.76 62.89 342.3 67.08 342.3 75.43C342.3 77.79 343.09 79.89 344.66 81.7C346.24 83.52 348.45 85.1 351.29 86.43C354.13 87.77 357.44 89.03 361.22 90.22C365.01 91.4 369.11 92.62 373.52 93.88C379.21 95.46 384.8 97.36 390.32 99.56C395.84 101.77 400.81 104.57 405.23 107.96C409.64 111.36 413.18 115.53 415.87 120.5C418.55 125.47 419.9 131.5 419.9 138.6C419.9 145.69 418.55 152.16 415.87 157.99C413.18 163.83 409.29 168.88 404.16 173.13C399.03 177.39 392.73 180.7 385.24 183.07C377.75 185.43 369.11 186.62 359.33 186.62C348.29 186.62 337.76 185.35 327.75 182.83C317.73 180.31 309.26 177.08 302.32 173.13C303.03 170.01 308.71 145.03 309.41 141.91C316.83 145.85 324.83 149.12 333.43 151.73C342.02 154.33 350.89 155.63 360.04 155.63" id="b2SOSfid8w"></path><path d="M541.26 183.07L541.26 124.4L481.87 124.4L481.87 183.07L444.26 183.07L444.26 35.21L481.87 35.21L481.87 92.7L541.26 92.7L541.26 35.21L578.87 35.21L578.87 183.07L541.26 183.07Z" id="bwhHpIvFX"></path></defs><g><g><g><g><use xlink:href="#d1YDkrBt2H" opacity="1" fill="#00adee" fill-opacity="1"></use><g><use xlink:href="#d1YDkrBt2H" opacity="1" fill-opacity="0" stroke="#000000" stroke-width="1" stroke-opacity="0"></use></g></g><g><use xlink:href="#bPuE6Zfyj" opacity="1" fill="#e93a26" fill-opacity="1"></use><g><use xlink:href="#bPuE6Zfyj" opacity="1" fill-opacity="0" stroke="#000000" stroke-width="1" stroke-opacity="0"></use></g></g><g><use xlink:href="#f3UnOjkhy0" opacity="1" fill="#ffc627" fill-opacity="1"></use><g><use xlink:href="#f3UnOjkhy0" opacity="1" fill-opacity="0" stroke="#000000" stroke-width="1" stroke-opacity="0"></use></g></g><g><use xlink:href="#bRUWY7kRz" opacity="1" fill="#00adee" fill-opacity="1"></use><g><use xlink:href="#bRUWY7kRz" opacity="1" fill-opacity="0" stroke="#000000" stroke-width="1" stroke-opacity="0"></use></g></g><g><use xlink:href="#c5g22v1H87" opacity="1" fill="#00adee" fill-opacity="1"></use><g><use xlink:href="#c5g22v1H87" opacity="1" fill-opacity="0" stroke="#000000" stroke-width="1" stroke-opacity="0"></use></g></g><g><use xlink:href="#b2SOSfid8w" opacity="1" fill="#00adee" fill-opacity="1"></use><g><use xlink:href="#b2SOSfid8w" opacity="1" fill-opacity="0" stroke="#000000" stroke-width="1" stroke-opacity="0"></use></g></g><g><use xlink:href="#bwhHpIvFX" opacity="1" fill="#00adee" fill-opacity="1"></use><g><use xlink:href="#bwhHpIvFX" opacity="1" fill-opacity="0" stroke="#000000" stroke-width="1" stroke-opacity="0"></use></g></g></g></g></g></svg>
